images/vk-icon-dark.svg

<svg width="50" height="30" viewBox="0 0 50 30" fill="none" xmlns="http://www.w3.org/2000/svg">
<path d="M24.465 29.2913H27.4527C27.4527 29.2913 28.3559 29.1913 28.8153 28.6944C29.2403 28.2381 29.2247 27.3818 29.2247 27.3818C29.2247 27.3818 29.1653 23.3721 31.028 22.7815C32.8625 22.2002 35.2189 26.6567 37.716 28.3725C39.6036 29.6695 41.0381 29.3851 41.0381 29.3851L47.7167 29.2913C47.7167 29.2913 51.2107 29.0757 49.5543 26.3286C49.42 26.1036 48.5886 24.2972 44.5883 20.5844C40.4005 16.6966 40.9631 17.3279 46.0072 10.6056C49.0793 6.5115 50.3075 4.01131 49.9231 2.94248C49.5575 1.92366 47.2979 2.19243 47.2979 2.19243L39.7849 2.23618C39.7849 2.23618 39.2286 2.16117 38.8129 2.40807C38.4098 2.65184 38.1504 3.21438 38.1504 3.21438C38.1504 3.21438 36.9597 6.38336 35.372 9.07731C32.0249 14.7621 30.6842 15.0621 30.1373 14.709C28.8653 13.887 29.1841 11.4025 29.1841 9.63985C29.1841 4.13007 30.0185 1.83303 27.5558 1.23923C26.737 1.04234 26.137 0.911082 24.0462 0.889206C21.3648 0.861079 19.0927 0.898581 17.8083 1.52675C16.9519 1.94553 16.2925 2.87998 16.6957 2.93311C17.1926 2.99874 18.3177 3.23625 18.9146 4.04882C19.6865 5.09577 19.6584 7.45219 19.6584 7.45219C19.6584 7.45219 20.1022 13.937 18.6239 14.7434C17.6082 15.2965 16.2175 14.1683 13.2329 9.00856C11.7047 6.36774 10.5483 3.44565 10.5483 3.44565C10.5483 3.44565 10.3265 2.90185 9.92955 2.61121C9.44827 2.25806 8.77322 2.14555 8.77322 2.14555L1.62894 2.1893C1.62894 2.1893 0.556989 2.22056 0.16321 2.68621C-0.186816 3.10187 0.135083 3.95818 0.135083 3.95818C0.135083 3.95818 5.72924 17.0435 12.061 23.6409C17.8708 29.6882 24.465 29.2913 24.465 29.2913Z" fill="#363739"/>
</svg>

<svg xmlns="http://www.w3.org/2000/svg" width="50" height="30" fill="none" xmlns:v="https://vecta.io/nano"><path d="M24.465 29.291h2.988s.903-.1 1.363-.597c.425-.456.409-1.313.409-1.313s-.059-4.01 1.803-4.6c1.834-.581 4.191 3.875 6.688 5.591 1.888 1.297 3.322 1.013 3.322 1.013l6.679-.094s3.494-.216 1.838-2.963c-.134-.225-.966-2.031-4.966-5.744-4.188-3.888-3.625-3.256 1.419-9.979 3.072-4.094 4.3-6.594 3.916-7.663-.366-1.019-2.625-.75-2.625-.75l-7.513.044s-.556-.075-.972.172c-.403.244-.663.806-.663.806s-1.191 3.169-2.778 5.863c-3.347 5.685-4.688 5.985-5.235 5.632-1.272-.822-.953-3.306-.953-5.069 0-5.51.834-7.807-1.628-8.401-.819-.197-1.419-.328-3.51-.35-2.681-.028-4.953.009-6.238.638-.856.419-1.516 1.353-1.113 1.406.497.066 1.622.303 2.219 1.116.772 1.047.744 3.403.744 3.403s.444 6.485-1.035 7.291c-1.016.553-2.406-.575-5.391-5.735-1.528-2.641-2.685-5.563-2.685-5.563s-.222-.544-.619-.834c-.481-.353-1.156-.466-1.156-.466l-7.144.044s-1.072.031-1.466.497c-.35.416-.028 1.272-.028 1.272s5.594 13.085 11.926 19.683c5.81 6.047 12.404 5.65 12.404 5.65z" fill="#363739"/></svg>
